!!!OTL: ES GINGEN DREI BAURN
!!!ARE: Europa, Mitteleuropa, Deutschland
!!!SCT: E0161
!!!YEM: Copyright 1995, estate of Helmut Schaffrath.
**kern
*ICvox
*Ivox
*M3/4
*k[b-]
*F:
{4f
=1
4f
4f
4g
=2
2a}
{4f
=3
4a
4a
4b-
=4
2cc}
{4f
=5
4f
4f
4g
=6
2a}
{4f
=7
4a
4a
4b-
=8
2cc}
{4cc
=9
4cc
4cc
4cc
=10
4cc
4b-}
{4a
=11
4b-
4a
4g
=12
2f}
==
!!!AGN: erzaehlendes Volks - Lied, Sage, Tier - Maerchen, Ballade ?
!!!ONB: ESAC (Essen Associative Code) Database: ERK1
!!!AMT: simple triple
!!!AIN: vox
!!!EED: Helmut Schaffrath
!!!EEV: 1.0
*-
